www/assets/icons/hide_source.svg

<svg width="24" height="24" viewBox="0 0 24 24" xmlns="http://www.w3.org/2000/svg" fill='currentColor'><path d="M3.11495 2.50507L1.69495 3.91507L3.96495 6.18507C2.91495 7.76507 2.30495 9.65507 2.30495 11.6951C2.30495 17.2151 6.78495 21.6951 12.3049 21.6951C14.3449 21.6951 16.2349 21.0851 17.8149 20.0351L20.0849 22.3051L21.4949 20.8951L3.11495 2.50507ZM12.3049 19.6951C7.89495 19.6951 4.30495 16.1051 4.30495 11.6951C4.30495 10.2151 4.71495 8.83507 5.42495 7.63507L16.3649 18.5751C15.1649 19.2851 13.7849 19.6951 12.3049 19.6951ZM8.24495 4.81507L6.79495 3.35507C8.37495 2.30507 10.2649 1.69507 12.3049 1.69507C17.8249 1.69507 22.3049 6.17507 22.3049 11.6951C22.3049 13.7351 21.6949 15.6251 20.6449 17.2051L19.1849 15.7451C19.8949 14.5551 20.3049 13.1751 20.3049 11.6951C20.3049 7.28507 16.7149 3.69507 12.3049 3.69507C10.8249 3.69507 9.44495 4.10507 8.24495 4.81507Z"/></svg>

<svg xmlns="http://www.w3.org/2000/svg" width="24" height="24" viewBox="0 0 24 24" fill='currentColor'><path d="m3.115 2.505-1.42 1.41 2.27 2.27a9.9 9.9 0 0 0-1.66 5.51c0 5.52 4.48 10 10 10 2.04 0 3.93-.61 5.51-1.66l2.27 2.27 1.41-1.41zm9.19 17.19c-4.41 0-8-3.59-8-8 0-1.48.41-2.86 1.12-4.06l10.94 10.94c-1.2.71-2.58 1.12-4.06 1.12m-4.06-14.88-1.45-1.46a9.9 9.9 0 0 1 5.51-1.66c5.52 0 10 4.48 10 10 0 2.04-.61 3.93-1.66 5.51l-1.46-1.46a7.87 7.87 0 0 0 1.12-4.05c0-4.41-3.59-8-8-8-1.48 0-2.86.41-4.06 1.12"/></svg>
